X:2079
T:Halling 2
S:Etter Øystein Rudi
Z:[[http://www.bluerose.karenlmyers.org/IncipitsHalling2.html|Karen Myers (#2079)]]
Z:Upptecknad 4/2001
M:4/4
L:1/16
R:Halling
%%MIDI OFF
N:Scordatura.
K:D
[A,16D16A16e16]  || [K:D][M:2/4]!open!G4 !open!A4 |: F2(DF)(E4 | F2)(DF)(E4 | F2)(DF) E2(E2 | F2)(DF)E4 | F2(DF) E2(B,E) |
D2B,A, A,2G,2 :| a4- a2(fa | ^g2)(eg f2)[G,2D2A2]  | a4- a2(fa | ^g2)(eg f2)[G,2D2A2]  | a4- a2(fa |
^g2)(eg f2)(df | e2)(ce d2)(Bd | c2)(Ac B2)(GB | A2)(FA G2)(EG | F2)(DF ED)(B,E) | D4 D4 |
a4- a2(fa | ^g2)(eg f2)[G,2D2A2]  | a4- a2(fa | ^g2)(eg f2)[G,2D2A2]  | a4- a2(fa) | (a^g)(eg) (gf)(df) |
(fe)(ce) (ed)(Bd) | (dc)(Ac) (cB)(GB) | (BA)(FA) (AG)(EG) | (GF)(DF) (ED)(B,E) | D4 D4 |]
!open!G4 !open!A4 ||d'4 a4 |
w:Harmonics|Harmonics
w:as~played|as~sounded
